www/assets/icons/format_textdirection_r_to_l.svg

<svg xmlns="http://www.w3.org/2000/svg" width="24" height="24" viewBox="0 0 24 24" fill='currentColor'><path d="M10 10v5h2V4h2v11h2V4h2V2h-8C7.79 2 6 3.79 6 6s1.79 4 4 4m-2 7v-3l-4 4 4 4v-3h12v-2z"/></svg>

<svg width="24" height="24" viewBox="0 0 24 24" xmlns="http://www.w3.org/2000/svg" fill='currentColor'><path d="M10 10V15H12V4H14V15H16V4H18V2H10C7.79 2 6 3.79 6 6C6 8.21 7.79 10 10 10ZM8 17V14L4 18L8 22V19H20V17H8Z"/></svg>
